Printex-remake/img/icons/catalog_sliced/05.svg

<svg width="84" height="84" viewBox="0 0 84 84" fill="none" xmlns="http://www.w3.org/2000/svg">
<rect width="63.0687" height="39.2797" transform="matrix(0.86601 -0.500028 -3.18907e-05 1 6.38184 41.7126)" fill="#FFE1D3"/>
<path d="M6.88089 80.1264L6.88219 39.1301L64.4929 5.86607L64.4916 46.8624L6.88089 80.1264Z" stroke="black" stroke-linejoin="bevel"/>
<path d="M62.6121 3L4.00134 36.8414L4 78.9924" stroke="black" stroke-linejoin="bevel"/>
<path d="M59.6121 1L1.00134 34.8414L1 76.9924" stroke="black" stroke-linejoin="bevel"/>
<path d="M38.7698 46.9209L7.89121 38.6726L63.7404 6.42571L38.7698 46.9209Z" fill="#FFE1D3" stroke="black" stroke-linejoin="bevel"/>
<path d="M24.5 52.5L6.59277 80.6295L64.5 47L54.5 44" stroke="black" stroke-linejoin="bevel"/>
<path d="M65.8853 46.8447L82.9997 49.3447L24.1146 83.3395L7.0001 80.8396L65.8853 46.8447Z" fill="#E5CABE"/>
<path d="M39.2998 40.6452L39.6796 41.2275L40.0595 40.2066C40.2963 39.5702 40.6916 38.6715 41.2734 37.816C41.8728 36.9345 42.5442 36.2802 43.2796 35.8556C45.3339 34.6695 46.9264 35.6839 46.9263 38.3599C46.9263 39.7797 46.4386 41.2772 45.5177 43.0921C44.5858 44.9285 43.2439 47.0259 41.5777 49.6274L41.5777 49.6274L41.5774 49.6279C41.0148 50.5064 40.3752 51.5049 39.7102 52.5605L39.71 52.5608C39.7018 52.5738 39.691 52.5849 39.6793 52.5917C39.6675 52.5985 39.6568 52.5998 39.6486 52.5963L39.6484 52.5962C38.9838 52.3088 38.3447 52.0489 37.7827 51.8203L37.7813 51.8198L37.7813 51.8198C36.115 51.1422 34.7732 50.5943 33.8413 49.8339C32.9204 49.0825 32.4328 48.1482 32.4328 46.7284C32.4329 44.0523 34.0256 41.1989 36.0799 40.0127C36.8152 39.5881 37.4866 39.4671 38.0861 39.6563L38.351 39.1079L38.0861 39.6563C38.6678 39.84 39.063 40.2823 39.2998 40.6452Z" fill="#FFE1D3" stroke="black"/>
<path d="M41.2998 41.6452L41.6796 42.2275L42.0595 41.2066C42.2963 40.5702 42.6916 39.6715 43.2734 38.816C43.8728 37.9345 44.5442 37.2802 45.2796 36.8556C47.3339 35.6695 48.9264 36.6839 48.9263 39.3599C48.9263 40.7797 48.4386 42.2772 47.5177 44.0921C46.5858 45.9285 45.2439 48.0259 43.5777 50.6274L43.5777 50.6274L43.5774 50.6279C43.0148 51.5064 42.3752 52.5049 41.7102 53.5605L41.71 53.5608C41.7018 53.5738 41.691 53.5849 41.6793 53.5917C41.6675 53.5985 41.6568 53.5998 41.6486 53.5963L41.6484 53.5962C40.9838 53.3088 40.3447 53.0489 39.7827 52.8203L39.7813 52.8198L39.7813 52.8198C38.115 52.1422 36.7732 51.5943 35.8413 50.8339C34.9204 50.0825 34.4328 49.1482 34.4328 47.7284C34.4329 45.0523 36.0256 42.1989 38.0799 41.0127C38.8152 40.5881 39.4866 40.4671 40.0861 40.6563L40.351 40.1079L40.0861 40.6563C40.6678 40.84 41.063 41.2823 41.2998 41.6452Z" fill="white" stroke="black"/>
</svg>

<svg width="84" height="84" fill="none" xmlns="http://www.w3.org/2000/svg"><path fill="#FFE1D3" d="M6.382 41.713L61 10.176v39.28L6.381 80.993z"/><path d="M6.88 80.126l.002-40.996 57.61-33.264v40.996L6.88 80.126z" stroke="#000" stroke-linejoin="bevel"/><path d="M62.612 3L4.002 36.841 4 78.992" stroke="#000" stroke-linejoin="bevel"/><path d="M59.612 1L1.002 34.841 1 76.992" stroke="#000" stroke-linejoin="bevel"/><path d="M38.77 46.92L7.89 38.674 63.74 6.427 38.77 46.92z" fill="#FFE1D3" stroke="#000" stroke-linejoin="bevel"/><path d="M24.5 52.5L6.593 80.63 64.5 47l-10-3" stroke="#000" stroke-linejoin="bevel"/><path d="M65.885 46.845L83 49.345 24.115 83.34 7 80.84l58.885-33.995z" fill="#E5CABE"/><path d="M39.3 40.645l.38.582.38-1.02c.236-.637.632-1.535 1.213-2.391.6-.882 1.271-1.536 2.007-1.96 2.054-1.187 3.646-.172 3.646 2.504 0 1.42-.487 2.917-1.408 4.732-.932 1.837-2.274 3.934-3.94 6.535h0c-.563.88-1.203 1.878-1.868 2.933h0a.093.093 0 01-.03.032c-.013.007-.023.008-.031.004h0c-.665-.287-1.304-.547-1.866-.776h-.002 0c-1.666-.678-3.008-1.226-3.94-1.986-.92-.752-1.408-1.686-1.408-3.106 0-2.676 1.593-5.53 3.647-6.715.735-.425 1.407-.546 2.006-.357l.265-.548-.265.548c.582.184.977.626 1.214.99z" fill="#FFE1D3" stroke="#000"/><path d="M41.3 41.645l.38.582.38-1.02c.236-.637.632-1.535 1.213-2.391.6-.882 1.271-1.536 2.007-1.96 2.054-1.187 3.646-.172 3.646 2.504 0 1.42-.487 2.917-1.408 4.732-.932 1.837-2.274 3.934-3.94 6.535h0c-.563.88-1.203 1.878-1.868 2.933h0a.093.093 0 01-.03.032c-.013.007-.023.008-.031.004h0c-.665-.287-1.304-.547-1.866-.776h-.002 0c-1.666-.678-3.008-1.226-3.94-1.986-.92-.752-1.408-1.686-1.408-3.106 0-2.676 1.593-5.53 3.647-6.715.735-.425 1.407-.546 2.006-.357l.265-.548-.265.548c.582.184.977.626 1.214.99z" fill="#fff" stroke="#000"/></svg>
